X: 3
T:Forked Ear (Deer)
M:2/4
L:1/16
S:As Played by Williamson Hamblen
R:Reel
K:D
|: F2F2 A2A2 | BAGA f2e2 | d2F2 FGAA | F2D2 D4 :| !
|:defg a4 | gfed f2d2 | dffg abaf | e2d2 e2A2 |!
defg a4 | gfed f2d2 | d2F2 FGAA | F2D2 D4 :|

